static/assets/images/exchanges/uniswap.svg

<svg width="229" height="256" viewBox="0 0 229 256" fill="none" xmlns="http://www.w3.org/2000/svg">
<path fill-rule="evenodd" clip-rule="evenodd" d="M106.262 238.557C114.203 235.463 117.46 227.312 113.014 219.771C111.418 217.064 111.195 217.173 112.345 220.098C117.802 233.916 99.838 240.565 92.3578 228.621C86.9448 219.979 92.3281 210.831 101.994 209.716C135.945 205.774 125.253 277.305 170.193 249.609C174.996 246.649 179.711 244.477 184.023 240.565C187.513 237.402 191.226 234.536 195.162 231.968C212.055 220.916 220.651 205 218.123 184.726C214.896 158.904 191.622 149.191 171.71 138.333C167.026 135.774 165.077 131.416 162.624 127.013C162.316 126.458 162.46 126.294 163.055 126.522C175.239 131.361 187.255 136.518 199.102 141.992C210.702 147.361 221.112 156.301 221.112 169.301C221.116 169.417 221.157 169.529 221.23 169.619C221.303 169.709 221.403 169.773 221.515 169.802C221.627 169.83 221.746 169.821 221.853 169.777C221.96 169.732 222.049 169.654 222.108 169.554C233.916 148.313 228.056 121.926 207.698 108.836C192.098 98.796 168.855 97.6656 152.749 94.3485C146.722 93.109 141.328 90.3572 136.57 86.0932C136.223 85.7758 135.985 85.399 135.856 84.9627L133.149 76.0677C133.001 75.5818 133.124 75.4975 133.521 75.8148C145.016 84.7545 158.356 87.3426 172.572 87.8781C187.905 88.4582 203.37 89.1424 211.074 102.425C211.14 102.546 211.249 102.637 211.378 102.684C211.508 102.73 211.65 102.727 211.778 102.676C211.905 102.625 212.01 102.529 212.072 102.406C212.134 102.283 212.149 102.142 212.115 102.009C202.984 65.7002 169.792 43.314 133.03 44.1321C130.552 44.1816 125.342 44.8014 117.401 45.9914C116.875 46.0707 116.444 45.9071 116.107 45.5005C104.195 30.9235 91.0789 21.3443 71.6127 19.6634C69.4217 19.475 67.548 19.5196 65.9914 19.7973C65.5354 19.8766 65.2677 20.1444 65.1884 20.6005L64.7423 23.2928C64.6629 23.7886 64.3804 24.0861 63.8946 24.1853C62.5463 24.463 61.8721 25.4001 61.8721 26.9966C61.8027 40.6415 65.927 52.7692 74.2449 63.3797C74.4432 63.6177 74.3886 63.702 74.0813 63.6326C68.7178 62.3038 65.1041 60.5932 63.2403 58.5009C36.4922 28.5336 18.8208 9.24205 10.1757 0L8.03347 2.14226C12.5391 7.55297 13.1263 8.15447 17.8389 13.3566C36.0807 33.4868 54.1987 53.7311 72.1927 74.0894C74.0218 76.1718 74.3639 78.5518 73.4121 81.2441C66.2889 101.176 41.707 83.1034 39.9076 110.249C39.3326 118.946 37.201 127.211 33.513 135.045C23.475 156.331 27.3564 164.675 46.0344 177.854C48.7211 179.758 50.5602 181.712 51.5516 183.715C60.0281 200.791 32.5612 210.548 19.8613 212.973C19.435 213.052 19.1079 212.914 18.8799 212.557L18.5837 212.097C8.05084 195.768 -1.54264 180.894 7.50349 162.414C9.97208 157.402 15.4298 151.14 19.3111 146.484C28.7493 135.14 34.1673 122.005 35.5652 107.081C36.0807 101.587 38.6881 96.1831 43.3874 90.8679C46.5401 87.3129 44.934 82.5679 42.6884 78.4179C35.59 65.3382 28.4321 52.2932 21.2146 39.283C17.0061 31.6969 11.6971 25.3901 6.41789 18.6371C6.39251 18.6 6.36006 18.5682 6.32241 18.5437C6.28475 18.5191 6.24263 18.5022 6.19844 18.4939C6.15425 18.4856 6.10886 18.4861 6.06486 18.4954C6.02087 18.5046 5.97912 18.5225 5.94202 18.5478C5.90491 18.5732 5.87317 18.6057 5.84861 18.6434C5.82405 18.681 5.80714 18.7232 5.79885 18.7674C5.79056 18.8116 5.79106 18.857 5.80032 18.901C5.80958 18.945 5.82741 18.9867 5.8528 19.0238C16.3716 37.9046 26.8855 56.7308 37.3944 75.5025C39.1392 78.6063 40.6462 81.8093 41.9152 85.1114C42.101 85.5926 42.1409 86.1183 42.0298 86.6234C41.9188 87.1284 41.6617 87.5906 41.2906 87.9525C34.554 94.527 32.9925 99.9265 31.6839 110.145C29.3937 128.158 20.8726 138.452 10.3141 152.255C6.08082 157.808 3.43377 161.968 2.37296 164.735C-5.70203 185.768 8.85675 199.66 15.8462 217.168C16.0246 217.634 16.3617 217.916 16.8574 218.016C28.665 220.514 38.8517 221.124 48.9343 214.624C49.3507 214.346 49.8067 214.213 50.3024 214.223C59.0863 214.322 67.0076 216.662 74.0664 221.243C84.4464 227.981 91.1979 244.433 106.262 238.557ZM64.7125 25.8512C76.5499 27.0561 86.692 33.2736 90.3205 45.203C94.1572 57.8315 95.7187 66.9794 104.508 76.6627C104.607 76.7737 104.672 76.9116 104.693 77.0591C104.715 77.2066 104.692 77.3572 104.629 77.492C104.566 77.6269 104.464 77.7401 104.336 77.8175C104.209 77.8948 104.062 77.9329 103.913 77.927C78.959 77.0494 62.6306 49.0407 63.9541 26.4908C63.9596 26.3982 63.9839 26.3076 64.0255 26.2246C64.067 26.1417 64.1251 26.068 64.196 26.0082C64.267 25.9483 64.3493 25.9036 64.4381 25.8766C64.5269 25.8496 64.6203 25.841 64.7125 25.8512ZM120.405 51.4057C151.634 45.1733 183.042 57.4745 199.653 85.1412C199.692 85.2141 199.709 85.2968 199.703 85.3794C199.696 85.462 199.666 85.5409 199.616 85.6068C199.566 85.6727 199.498 85.7227 199.42 85.7509C199.342 85.7791 199.258 85.7843 199.177 85.7659C181.718 81.244 163.293 84.7991 146.384 77.2279C135.573 72.4086 126.963 61.9369 120.107 52.1643C119.81 51.7577 119.909 51.5049 120.405 51.4057ZM185.109 105.594C208.248 109.997 225.662 127.444 222.331 152.419C222.323 152.487 222.295 152.552 222.25 152.604C222.205 152.656 222.145 152.693 222.077 152.712C222.01 152.731 221.938 152.73 221.869 152.71C221.801 152.689 221.739 152.65 221.692 152.597C200.396 127.281 152.571 128.738 141.061 97.2937C141.022 97.1919 141.014 97.0811 141.037 96.9747C141.059 96.8683 141.113 96.7707 141.189 96.6937C141.266 96.6167 141.364 96.5636 141.47 96.5408C141.577 96.5179 141.688 96.5263 141.789 96.5648C155.947 101.592 170.476 102.812 185.109 105.594ZM95.8823 116.006L80.8328 120.141C79.6062 120.479 78.2957 120.316 77.1889 119.689C76.082 119.061 75.2693 118.02 74.9289 116.794L74.3044 114.533C73.4049 111.263 73.8223 107.775 75.4648 104.835C77.1073 101.895 79.8405 99.7445 83.0634 98.8555C84.6602 98.4155 86.3291 98.2989 87.975 98.5122C89.6209 98.7256 91.2116 99.2648 92.656 100.099C94.1005 100.933 95.3705 102.046 96.3936 103.375C97.4166 104.703 98.1727 106.22 98.6186 107.84L99.2432 110.086C99.4124 110.695 99.4597 111.332 99.3822 111.96C99.3048 112.588 99.1042 113.194 98.7919 113.744C98.4797 114.294 98.0619 114.777 97.5626 115.165C97.0633 115.553 96.4923 115.839 95.8823 116.006ZM114.546 172.842C133.03 170.521 154.876 167.278 155.53 143.271C155.659 138.68 155.114 134.559 153.894 130.91C153.841 130.735 153.853 130.546 153.93 130.378C154.006 130.21 154.14 130.076 154.307 130.002C154.474 129.928 154.661 129.919 154.832 129.977C155.003 130.035 155.146 130.155 155.233 130.315C170.208 157.818 151.173 177.393 124.122 177.899C112.394 178.127 101.221 179.714 90.6031 182.659C90.0974 182.798 90.0627 182.718 90.499 182.421C98.4401 177.056 106.456 173.863 114.546 172.842ZM171.665 144.892C181.679 149.493 191.018 155.156 199.682 161.879C218.004 176.099 216.412 202.204 202.999 218.982C202.913 219.089 202.796 219.166 202.665 219.205C202.533 219.243 202.394 219.24 202.264 219.196C202.134 219.152 202.021 219.07 201.94 218.96C201.858 218.85 201.813 218.718 201.809 218.581C201.467 199.69 189.183 184.131 179.145 169.063C174.327 161.805 170.372 153.534 170.937 145.324C170.976 144.828 171.219 144.684 171.665 144.892ZM98.0832 195.287C116.404 193.696 131.915 203.543 134.577 221.868C135.608 229.028 136.783 235.513 138.101 241.324C138.128 241.464 138.102 241.609 138.029 241.731C137.955 241.853 137.84 241.944 137.704 241.986C137.568 242.028 137.421 242.019 137.291 241.96C137.162 241.901 137.058 241.796 137.001 241.666C133.739 233.842 130.324 226.613 126.755 219.979C120.42 208.183 99.6596 198.798 89.5323 212.928C86.459 217.192 85.9435 222.27 87.9858 228.16C88.4815 229.608 88.2534 229.732 87.3017 228.532C80.2528 219.647 71.1914 214.004 60.1174 211.605C59.3936 211.446 59.3193 211.134 59.8943 210.668C71.0873 201.663 83.8169 196.537 98.0832 195.287Z" fill="#F7499D"/>
<path d="M90.8627 105.473C90.7515 105.009 90.5258 104.578 90.1985 104.204C89.8712 103.83 89.4487 103.52 88.9551 103.292C88.4615 103.063 87.9066 102.922 87.3219 102.875C86.7372 102.827 86.1343 102.876 85.5475 103.017C84.3625 103.301 83.3152 103.946 82.6361 104.809C81.957 105.672 81.7017 106.683 81.9264 107.619C82.0376 108.082 82.2633 108.513 82.5906 108.887C82.9179 109.262 83.3404 109.572 83.834 109.8C84.3276 110.028 84.8825 110.17 85.4672 110.217C86.0519 110.264 86.6548 110.216 87.2416 110.075C88.4266 109.79 89.4739 109.145 90.153 108.282C90.8321 107.419 91.0874 106.409 90.8627 105.473Z" fill="#F7499D"/>
</svg>

<svg xmlns="http://www.w3.org/2000/svg" fill="none" viewBox="0 0 229 256"><path fill="#F7499D" fill-rule="evenodd" d="M106.262 238.557c7.941-3.094 11.198-11.245 6.752-18.786q-2.394-4.06-.669.327c5.457 13.818-12.507 20.467-19.987 8.523-5.413-8.642-.03-17.79 9.636-18.905 33.951-3.942 23.259 67.589 68.199 39.893 4.803-2.96 9.518-5.132 13.83-9.044a89 89 0 0 1 11.139-8.597c16.893-11.052 25.489-26.968 22.961-47.242-3.227-25.822-26.501-35.535-46.413-46.393-4.684-2.559-6.633-6.917-9.086-11.32q-.462-.833.431-.491a716 716 0 0 1 36.047 15.47c11.6 5.369 22.01 14.309 22.01 27.309a.534.534 0 0 0 .996.253c11.808-21.241 5.948-47.628-14.41-60.718-15.6-10.04-38.843-11.17-54.949-14.487q-9.041-1.86-16.179-8.256a2.45 2.45 0 0 1-.714-1.13l-2.707-8.895q-.223-.729.372-.253c11.495 8.94 24.835 11.528 39.051 12.063 15.333.58 30.798 1.264 38.502 14.547a.565.565 0 0 0 1.041-.416c-9.131-36.309-42.323-58.695-79.085-57.877q-3.717.075-15.629 1.86-.789.118-1.294-.491c-11.912-14.577-25.028-24.157-44.494-25.838q-3.287-.282-5.622.134-.683.12-.803.803l-.446 2.693q-.12.744-.847.892-2.023.417-2.023 2.812-.105 20.467 12.373 36.383.297.357-.164.253-8.045-1.994-10.84-5.132C36.491 28.534 18.82 9.242 10.175 0L8.033 2.142c4.506 5.411 5.093 6.012 9.806 11.215a6575 6575 0 0 1 54.354 60.732c1.829 2.083 2.17 4.463 1.22 7.155-7.124 19.932-31.706 1.86-33.505 29.005q-.863 13.045-6.395 24.796c-10.038 21.286-6.157 29.63 12.521 42.809q4.03 2.856 5.518 5.861c8.476 17.076-18.99 26.833-31.69 29.258q-.64.119-.982-.416l-.296-.46C8.05 195.768-1.543 180.894 7.504 162.414c2.468-5.012 7.926-11.274 11.807-15.93q14.157-17.016 16.254-39.403.774-8.24 7.822-16.213c3.153-3.555 1.547-8.3-.699-12.45a4819 4819 0 0 0-21.473-39.135c-4.209-7.586-9.518-13.893-14.797-20.646a.341.341 0 0 0-.62.13.34.34 0 0 0 .055.257 31310 31310 0 0 0 31.541 56.479 73 73 0 0 1 4.521 9.608c.186.482.226 1.007.115 1.512a2.65 2.65 0 0 1-.74 1.33c-6.736 6.574-8.297 11.974-9.606 22.192-2.29 18.013-10.811 28.307-21.37 42.11q-6.35 8.33-7.941 12.48c-8.075 21.033 6.484 34.925 13.473 52.433q.268.699 1.011.848c11.808 2.498 21.995 3.108 32.077-3.392a2.32 2.32 0 0 1 1.368-.401q13.176.148 23.764 7.02c10.38 6.738 17.132 23.19 32.196 17.314M64.712 25.851c11.838 1.205 21.98 7.423 25.608 19.352 3.837 12.628 5.399 21.776 14.188 31.46a.757.757 0 0 1-.172 1.154.76.76 0 0 1-.423.11c-24.954-.878-41.282-28.886-39.959-51.436a.685.685 0 0 1 .759-.64m55.693 25.555c31.229-6.233 62.637 6.069 79.248 33.735a.44.44 0 0 1-.037.466.43.43 0 0 1-.439.159c-17.459-4.522-35.884-.967-52.793-8.538-10.811-4.82-19.421-15.291-26.277-25.064q-.446-.61.298-.758m64.704 54.188c23.139 4.403 40.553 21.85 37.222 46.825a.345.345 0 0 1-.254.293.38.38 0 0 1-.385-.115c-21.296-25.316-69.121-23.859-80.631-55.303a.56.56 0 0 1 .128-.6.57.57 0 0 1 .6-.13c14.158 5.028 28.687 6.248 43.32 9.03m-89.227 10.412-15.05 4.135a4.804 4.804 0 0 1-5.903-3.347l-.625-2.261c-.9-3.27-.482-6.758 1.16-9.698a12.52 12.52 0 0 1 7.6-5.98 12.5 12.5 0 0 1 4.911-.343 12.6 12.6 0 0 1 4.681 1.587 12.8 12.8 0 0 1 3.738 3.276 13 13 0 0 1 2.225 4.465l.624 2.246a4.804 4.804 0 0 1-3.36 5.92m18.664 56.836c18.484-2.321 40.33-5.564 40.984-29.571q.194-6.887-1.636-12.361a.75.75 0 0 1 .413-.908.72.72 0 0 1 .926.313c14.975 27.503-4.06 47.078-31.111 47.584q-17.592.342-33.519 4.76-.758.208-.104-.238 11.912-8.048 24.047-9.579m57.119-27.95a142.8 142.8 0 0 1 28.017 16.987c18.322 14.22 16.73 40.325 3.317 57.103a.67.67 0 0 1-1.19-.401c-.342-18.891-12.626-34.45-22.664-49.518-4.818-7.258-8.773-15.529-8.208-23.739q.059-.744.728-.432m-73.582 50.395c18.321-1.591 33.832 8.256 36.494 26.581q1.547 10.74 3.524 19.456a.58.58 0 0 1-1.1.342q-4.893-11.736-10.246-21.687c-6.335-11.796-27.095-21.181-37.223-7.051q-4.61 6.397-1.546 15.232.743 2.172-.684.372-10.574-13.328-27.185-16.927-1.085-.238-.223-.937 16.79-13.507 38.19-15.381" clip-rule="evenodd"/><path fill="#F7499D" d="M90.863 105.473a3 3 0 0 0-.665-1.269 3.7 3.7 0 0 0-1.243-.912 4.8 4.8 0 0 0-1.633-.417 5.7 5.7 0 0 0-1.775.142c-1.184.284-2.232.929-2.91 1.792-.68.863-.935 1.874-.71 2.81.11.463.336.894.664 1.268.327.375.75.685 1.243.913a4.8 4.8 0 0 0 1.633.417 5.7 5.7 0 0 0 1.775-.142c1.185-.285 2.232-.93 2.911-1.793.68-.863.934-1.873.71-2.809"/></svg>
